src/topics/icons/redux.svg

<svg height="244" preserveAspectRatio="xMidYMid" viewBox="0 0 256 244" width="256" xmlns="http://www.w3.org/2000/svg"><path d="m177.380953 169.732752c9.447352-.977347 16.614309-9.121913 16.288538-18.895392s-8.47004-17.592263-18.243163-17.592263h-.651541c-10.098894.325783-17.917392 8.796132-17.591621 18.895393.325771 4.88674 2.280395 9.121914 5.212332 12.053958-11.076206 21.827436-28.016285 37.790785-53.426405 51.147873-17.2658501 9.121914-35.1832419 12.37974-53.1006338 10.099262-14.6596842-1.954696-26.0616608-8.470349-33.2286175-19.221175-10.4246644-15.96335-11.4019767-33.229829-2.6061661-50.496309 6.1896444-12.37974 15.9627672-21.501654 22.1524117-26.062611-1.303083-4.235174-3.2577076-11.402392-4.2350199-16.614914-47.23676028 34.207177-42.35019887 80.468311-28.0162854 102.295747 10.7504351 16.289132 32.5770761 26.388394 56.6841123 26.388394 6.5154153 0 13.0308305-.651566 19.5462457-2.280479 41.698657-8.144566 73.298421-32.904046 91.215813-69.717484zm57.335654-40.397046c-24.758578-28.994655-61.244903-44.9580037-102.943561-44.9580037h-5.212332c-2.931937-5.8640874-9.121581-9.773479-15.962767-9.773479h-.651541c-10.0988941.3257826-17.9173923 8.7961311-17.5916216 18.8953927.3257708 9.773479 8.4700396 17.592262 18.2431626 17.592262h.651542c7.166956-.325782 13.356601-4.886739 15.962767-11.076609h5.863874c24.758577 0 48.214072 7.167218 69.389172 21.175871 16.288538 10.750827 28.016285 24.75948 34.5317 41.700177 5.538103 13.682871 5.212332 27.039959-.651541 38.442351-9.121582 17.26648-24.432807 26.714176-44.630595 26.714176-13.03083 0-25.410119-3.909392-31.925534-6.841435-3.583478 3.257826-10.098894 8.470348-14.659684 11.728175 14.008142 6.515652 28.342056 10.099261 42.024428 10.099261 31.273993 0 54.403717-17.266479 63.199527-34.532959 9.447352-18.895393 8.795811-51.473656-15.636996-79.16518zm-165.4915466 45.935351c.3257708 9.773479 8.4700398 17.592263 18.2431626 17.592263h.6515415c10.0988936-.325783 17.9173915-8.796132 17.5916215-18.895393-.325771-9.773479-8.4700402-17.592263-18.243163-17.592263h-.6515415c-.6515415 0-1.6288538 0-2.2803953.325783-13.3566012-22.153219-18.8947041-46.261134-16.9400796-72.3237447 1.3030831-19.5469581 7.8184983-36.4876551 19.2204749-50.4963083 9.4473521-12.0539575 27.6905145-17.9180449 40.0698035-18.2438276 34.531701-.6515652 49.191385 42.3517425 50.168697 59.6182221 4.23502.9773479 11.401977 3.2578264 16.288538 4.8867395-3.909249-52.7767867-36.486325-80.142528-67.760318-80.142528-29.3193684 0-56.3583416 21.1758712-67.1087767 52.4510041-14.985455 41.7001772-5.2123321 81.7714409 13.0308305 113.3723569-1.6288538 2.280478-2.6061661 5.864087-2.2803954 9.447696z" fill="#764abc"/></svg>

<?xml version="1.0" encoding="UTF-8" standalone="no"?>
<svg width="256px" height="244px" viewBox="0 0 256 244" version="1.1" xmlns="http://www.w3.org/2000/svg" xmlns:xlink="http://www.w3.org/1999/xlink" preserveAspectRatio="xMidYMid">
    <g>
        <path d="M177.380953,169.732752 C186.828305,168.755405 193.995262,160.610839 193.669491,150.83736 C193.34372,141.063881 185.199451,133.245097 175.426328,133.245097 L174.774787,133.245097 C164.675893,133.57088 156.857395,142.041229 157.183166,152.14049 C157.508937,157.02723 159.463561,161.262404 162.395498,164.194448 C151.319292,186.021884 134.379213,201.985233 108.969093,215.342321 C91.7032429,224.464235 73.7858511,227.722061 55.8684592,225.441583 C41.208775,223.486887 29.8067984,216.971234 22.6398417,206.220408 C12.2151773,190.257058 11.237865,172.990579 20.0336756,155.724099 C26.22332,143.344359 35.9964428,134.222445 42.1860873,129.661488 C40.8830043,125.426314 38.9283797,118.259096 37.9510674,113.046574 C-9.28569288,147.253751 -4.39913147,193.514885 9.934782,215.342321 C20.6852171,231.631453 42.5118581,241.730715 66.6188943,241.730715 C73.1343096,241.730715 79.6497248,241.079149 86.16514,239.450236 C127.863797,231.30567 159.463561,206.54619 177.380953,169.732752 Z M234.716607,129.335706 C209.958029,100.341051 173.471704,84.3777023 131.773046,84.3777023 L126.560714,84.3777023 C123.628777,78.5136149 117.439133,74.6042233 110.597947,74.6042233 L109.946406,74.6042233 C99.8475119,74.9300059 92.0290137,83.4003544 92.3547844,93.499616 C92.6805552,103.273095 100.824824,111.091878 110.597947,111.091878 L111.249489,111.091878 C118.416445,110.766096 124.60609,106.205139 127.212256,100.015269 L133.07613,100.015269 C157.834707,100.015269 181.290202,107.182487 202.465302,121.19114 C218.75384,131.941967 230.481587,145.95062 236.997002,162.891317 C242.535105,176.574188 242.209334,189.931276 236.345461,201.333668 C227.223879,218.600148 211.912654,228.047844 191.714866,228.047844 C178.684036,228.047844 166.304747,224.138452 159.789332,221.206409 C156.205854,224.464235 149.690438,229.676757 145.129648,232.934584 C159.13779,239.450236 173.471704,243.033845 187.154076,243.033845 C218.428069,243.033845 241.557793,225.767366 250.353603,208.500886 C259.800955,189.605493 259.149414,157.02723 234.716607,129.335706 Z M69.2250604,175.271057 C69.5508312,185.044536 77.6951002,192.86332 87.468223,192.86332 L88.1197645,192.86332 C98.2186581,192.537537 106.037156,184.067188 105.711386,173.967927 C105.385615,164.194448 97.2413458,156.375664 87.468223,156.375664 L86.8166815,156.375664 C86.16514,156.375664 85.1878277,156.375664 84.5362862,156.701447 C71.179685,134.548228 65.6415821,110.440313 67.5962066,84.3777023 C68.8992897,64.8307442 75.4147049,47.8900472 86.8166815,33.881394 C96.2640336,21.8274365 114.507196,15.9633491 126.886485,15.6375664 C161.418186,14.9860012 176.07787,57.9893089 177.055182,75.2557885 C181.290202,76.2331364 188.457159,78.5136149 193.34372,80.142528 C189.434471,27.3657413 156.857395,0 125.583402,0 C96.2640336,0 69.2250604,21.1758712 58.4746253,52.4510041 C43.4891703,94.1511813 53.2622932,134.222445 71.5054558,165.823361 C69.876602,168.103839 68.8992897,171.687448 69.2250604,175.271057 Z" fill="#764ABC"></path>
    </g>
</svg>
